src/assets/payments/mir-pay-icon.svg

<svg width="151" height="45" viewBox="0 0 151 45" fill="none" xmlns="http://www.w3.org/2000/svg">
<path d="M118.991 6H97.8135C99.0471 13.2387 105.832 20.0517 113.234 20.0517H130.094C130.299 19.4129 130.299 18.3484 130.299 17.7097C130.299 11.3226 125.159 6 118.991 6Z" fill="url(#paint0_linear_3205_37229)"/>
<path d="M99.6641 21.3291V39.0001H109.944V29.6323H118.991C123.926 29.6323 128.244 26.013 129.683 21.3291H99.6641Z" fill="#4FAD50"/>
<path d="M63.4775 6V38.7872H72.5243C72.5243 38.7872 74.786 38.7872 76.0196 36.4452C82.1878 23.8839 84.0383 20.0517 84.0383 20.0517H85.2719V38.7872H95.5523V6H86.5056C86.5056 6 84.2439 6.21292 83.0103 8.34195C77.8701 19.2 74.9916 24.7355 74.9916 24.7355H73.7579V6H63.4775Z" fill="#4FAD50"/>
<path d="M20.2998 39V6.21289H30.5802C30.5802 6.21289 33.4587 6.21288 35.1036 10.8968C39.2157 23.2452 39.627 24.9484 39.627 24.9484C39.627 24.9484 40.4494 21.9678 44.1503 10.8968C45.7951 6.21288 48.6737 6.21289 48.6737 6.21289H58.954V39H48.6737V21.3291H47.44L41.683 39H37.1596L31.4027 21.3291H30.169V39H20.2998Z" fill="#4FAD50"/>
<defs>
<linearGradient id="paint0_linear_3205_37229" x1="97.7769" y1="13.1265" x2="130.227" y2="13.1265" gradientUnits="userSpaceOnUse">
<stop stop-color="#27B1E6"/>
<stop offset="1" stop-color="#148ACA"/>
</linearGradient>
</defs>
</svg>

<svg xmlns="http://www.w3.org/2000/svg" width="151" height="45" fill="none" viewBox="0 0 151 45">
    <path fill="url(#a)" d="M118.991 6H97.814c1.233 7.239 8.018 14.052 15.42 14.052h16.86c.205-.64.205-1.704.205-2.342 0-6.387-5.14-11.71-11.308-11.71Z"/>
    <path fill="#4FAD50" d="M99.664 21.33V39h10.28v-9.368h9.047c4.935 0 9.253-3.619 10.692-8.303H99.664ZM63.477 6v32.787h9.047s2.262 0 3.496-2.342c6.168-12.561 8.018-16.393 8.018-16.393h1.234v18.735h10.28V6h-9.046s-2.262.213-3.496 2.342c-5.14 10.858-8.018 16.393-8.018 16.393h-1.234V6h-10.28ZM20.3 39V6.213h10.28s2.879 0 4.524 4.684c4.112 12.348 4.523 14.051 4.523 14.051s.822-2.98 4.523-14.051c1.645-4.684 4.524-4.684 4.524-4.684h10.28V39h-10.28V21.33H47.44L41.683 39H37.16l-5.757-17.67h-1.234V39h-9.87Z"/>
    <defs>
        <linearGradient id="a" x1="97.777" x2="130.227" y1="13.127" y2="13.127" gradientUnits="userSpaceOnUse">
            <stop stop-color="#27B1E6"/>
            <stop offset="1" stop-color="#148ACA"/>
        </linearGradient>
    </defs>
</svg>
